packages/sources/assets/src/assets/flag-st.svg

<svg width="28" height="20" viewBox="0 0 28 20" fill="none" xmlns="http://www.w3.org/2000/svg">
<rect width="28" height="20" rx="2" fill="white"/>
<mask id="mask0_503_4030" style="mask-type:alpha" maskUnits="userSpaceOnUse" x="0" y="0" width="28" height="20">
<rect width="28" height="20" rx="2" fill="white"/>
</mask>
<g mask="url(#mask0_503_4030)">
<path fill-rule="evenodd" clip-rule="evenodd" d="M0 20H28V13.3333H0V20Z" fill="#2ACB41"/>
<path fill-rule="evenodd" clip-rule="evenodd" d="M0 6.66667H28V0H0V6.66667Z" fill="#2ACB41"/>
<path fill-rule="evenodd" clip-rule="evenodd" d="M0 13.3333H28V6.66666H0V13.3333Z" fill="#FDD043"/>
<path fill-rule="evenodd" clip-rule="evenodd" d="M0 0L10.6667 10L0 20V0Z" fill="#E71E43"/>
<path fill-rule="evenodd" clip-rule="evenodd" d="M14.6667 11.0933L13.0992 12.1574L13.6268 10.3379L12.1305 9.17596L14.024 9.11548L14.6667 7.33334L15.3093 9.11548L17.2028 9.17596L15.7065 10.3379L16.2341 12.1574L14.6667 11.0933Z" fill="#262626"/>
<path fill-rule="evenodd" clip-rule="evenodd" d="M21.3333 11.0933L19.7659 12.1574L20.2935 10.3379L18.7972 9.17596L20.6907 9.11548L21.3333 7.33334L21.976 9.11548L23.8695 9.17596L22.3731 10.3379L22.9008 12.1574L21.3333 11.0933Z" fill="#262626"/>
</g>
</svg>

<svg width="28" height="20" fill="none" xmlns="http://www.w3.org/2000/svg"><rect width="28" height="20" rx="2" fill="#fff"/><mask id="a" style="mask-type:alpha" maskUnits="userSpaceOnUse" x="0" y="0" width="28" height="20"><rect width="28" height="20" rx="2" fill="#fff"/></mask><g mask="url(#a)" fill-rule="evenodd" clip-rule="evenodd"><path d="M0 20h28v-6.667H0V20ZM0 6.667h28V0H0v6.667Z" fill="#2ACB41"/><path d="M0 13.333h28V6.667H0v6.666Z" fill="#FDD043"/><path d="m0 0 10.667 10L0 20V0Z" fill="#E71E43"/><path d="m14.667 11.093-1.568 1.064.528-1.82-1.497-1.161 1.894-.06.643-1.783.642 1.782 1.894.061-1.496 1.162.527 1.82-1.567-1.065Zm6.666 0-1.567 1.064.528-1.82-1.497-1.161 1.894-.06.642-1.783.643 1.782 1.893.061-1.496 1.162.528 1.82-1.568-1.065Z" fill="#262626"/></g></svg>
